img/Instagram.svg

<svg width="9" height="9" viewBox="0 0 9 9" fill="none" xmlns="http://www.w3.org/2000/svg">
<path d="M2.75187 4.12867C2.75187 3.36863 3.36766 2.75233 4.12747 2.75233C4.88729 2.75233 5.50341 3.36863 5.50341 4.12867C5.50341 4.8887 4.88729 5.505 4.12747 5.505C3.36766 5.505 2.75187 4.8887 2.75187 4.12867ZM2.00807 4.12867C2.00807 5.29956 2.95692 6.24869 4.12747 6.24869C5.29803 6.24869 6.24688 5.29956 6.24688 4.12867C6.24688 2.95778 5.29803 2.00865 4.12747 2.00865C2.95692 2.00865 2.00807 2.95778 2.00807 4.12867ZM5.83549 1.92459C5.83545 2.02258 5.86446 2.11837 5.91885 2.19987C5.97324 2.28137 6.05057 2.3449 6.14106 2.38244C6.23155 2.41997 6.33113 2.42982 6.42722 2.41074C6.52331 2.39166 6.61158 2.34451 6.68087 2.27525C6.75017 2.20599 6.79738 2.11773 6.81653 2.02163C6.83568 1.92554 6.82591 1.82592 6.78846 1.73537C6.75101 1.64483 6.68755 1.56742 6.60612 1.51295C6.52469 1.45848 6.42895 1.42938 6.33098 1.42934H6.33079C6.19948 1.42941 6.07356 1.4816 5.9807 1.57445C5.88783 1.66731 5.8356 1.79324 5.83549 1.92459ZM2.45998 7.4893C2.05756 7.47097 1.83884 7.40392 1.69349 7.34728C1.50078 7.27223 1.36329 7.18286 1.21873 7.03845C1.07417 6.89405 0.984683 6.75665 0.909993 6.56389C0.853331 6.41856 0.7863 6.19971 0.768007 5.79718C0.747997 5.36198 0.744002 5.23125 0.744002 4.1287C0.744002 3.02615 0.748328 2.89578 0.768007 2.46022C0.786333 2.05769 0.853859 1.83927 0.909993 1.69351C0.985014 1.50075 1.07437 1.36322 1.21873 1.21862C1.36309 1.07401 1.50045 0.984505 1.69349 0.909793C1.83877 0.853115 2.05756 0.786065 2.45998 0.767767C2.89504 0.747751 3.02574 0.743755 4.12747 0.743755C5.22921 0.743755 5.36004 0.748081 5.79547 0.767767C6.19788 0.786098 6.41624 0.853643 6.56196 0.909793C6.75466 0.984505 6.89216 1.07421 7.03672 1.21862C7.18128 1.36302 7.27043 1.50075 7.34545 1.69351C7.40211 1.83884 7.46914 2.05769 7.48744 2.46022C7.50745 2.89578 7.51144 3.02615 7.51144 4.1287C7.51144 5.23125 7.50745 5.36162 7.48744 5.79718C7.46911 6.19971 7.40175 6.41849 7.34545 6.56389C7.27043 6.75665 7.18108 6.89418 7.03672 7.03845C6.89235 7.18272 6.75466 7.27223 6.56196 7.34728C6.41667 7.40395 6.19788 7.471 5.79547 7.4893C5.3604 7.50932 5.22971 7.51331 4.12747 7.51331C3.02524 7.51331 2.89491 7.50932 2.45998 7.4893ZM2.4258 0.0250032C1.98641 0.045019 1.68616 0.114711 1.42395 0.216772C1.15239 0.322168 0.922507 0.463567 0.692788 0.692988C0.46307 0.92241 0.322075 1.15272 0.216709 1.42436C0.114678 1.68681 0.045006 1.98698 0.024996 2.4265C0.00465579 2.86672 0 3.00745 0 4.12867C0 5.24988 0.00465579 5.39062 0.024996 5.83083C0.045006 6.27039 0.114678 6.57053 0.216709 6.83298C0.322075 7.10444 0.463103 7.33502 0.692788 7.56434C0.922474 7.79367 1.15239 7.93487 1.42395 8.04056C1.68665 8.14262 1.98641 8.21231 2.4258 8.23233C2.86612 8.25235 3.00658 8.25733 4.12747 8.25733C5.24836 8.25733 5.38906 8.25268 5.82915 8.23233C6.26858 8.21231 6.56863 8.14262 6.831 8.04056C7.10239 7.93487 7.33244 7.79377 7.56216 7.56434C7.79188 7.33492 7.93258 7.10444 8.03824 6.83298C8.14027 6.57053 8.21027 6.27035 8.22995 5.83083C8.24996 5.39029 8.25462 5.24988 8.25462 4.12867C8.25462 3.00745 8.24996 2.86672 8.22995 2.4265C8.20994 1.98695 8.14027 1.68664 8.03824 1.42436C7.93258 1.15289 7.79152 0.922774 7.56216 0.692988C7.33281 0.463203 7.10239 0.322168 6.83133 0.216772C6.56863 0.114711 6.26854 0.0446887 5.82948 0.0250032C5.38939 0.00498743 5.24869 0 4.1278 0C3.00691 0 2.86612 0.00465714 2.4258 0.0250032Z" fill="white"/>
</svg>

<svg xmlns="http://www.w3.org/2000/svg" width="9" height="9" fill="none"><path fill="#fff" d="M2.752 4.129a1.376 1.376 0 1 1 2.752-.001 1.376 1.376 0 0 1-2.752 0m-.744 0a2.12 2.12 0 1 0 4.24 0 2.12 2.12 0 0 0-4.24 0m3.827-2.204a.496.496 0 1 0 .496-.496.496.496 0 0 0-.496.496M2.46 7.489c-.402-.018-.621-.085-.767-.142a1.3 1.3 0 0 1-.474-.309 1.3 1.3 0 0 1-.309-.474C.853 6.419.786 6.2.768 5.797.748 5.362.744 5.231.744 4.13c0-1.103.004-1.233.024-1.669.018-.402.086-.62.142-.766.075-.193.164-.33.309-.475.144-.145.281-.234.474-.31.146-.056.365-.123.767-.141.435-.02.566-.024 1.667-.024 1.102 0 1.233.004 1.668.024.403.018.621.086.767.142.193.075.33.164.475.309.144.144.233.282.308.475.057.145.124.364.142.766.02.436.024.566.024 1.669 0 1.102-.004 1.233-.024 1.668-.018.403-.085.621-.142.767a1.3 1.3 0 0 1-.308.474 1.3 1.3 0 0 1-.475.31c-.145.056-.364.123-.767.141-.435.02-.565.024-1.668.024S2.895 7.51 2.46 7.49M2.426.025c-.44.02-.74.09-1.002.192a2 2 0 0 0-.731.476c-.23.23-.37.46-.476.731-.102.263-.172.563-.192 1.003S0 3.007 0 4.129C0 5.249.005 5.39.025 5.83s.09.74.192 1.002c.105.271.246.502.476.731.23.23.46.37.731.477.263.102.562.171 1.002.191s.58.025 1.701.025 1.262-.004 1.702-.025c.44-.02.74-.09 1.002-.191a2 2 0 0 0 .731-.477c.23-.23.37-.46.476-.731.102-.262.172-.563.192-1.002s.025-.581.025-1.702c0-1.122-.005-1.262-.025-1.702s-.09-.74-.192-1.003a2 2 0 0 0-.476-.731 2 2 0 0 0-.73-.476A3 3 0 0 0 5.828.025C5.39.005 5.25 0 4.128 0S2.866.005 2.426.025"/></svg>
